X:1
T: The Best in the Bag
C:
R:Jig
Q:180
K:G
M:6/8
L:1/16
D2|G2A2G2 A2G2A2|B2g2e2 d2B2A2|G2F2G2 A2G2A2|B2G2E2 E4D2|G2A2G2 A2G2A2|B2g2e2 d2B2G2|c4A2 B2G2E2|G2A2G2 G4D2|
G2A2G2 A2G2A2|B2g2e2 d2B2A2|G2F2G2 A2G2A2|B2G2E2 E4D2|G2A2G2 A2G2A2|B2g2e2 d2B2G2|c4A2 B2G2E2|G2A2G2 G4d2|
g2f2g2 a2f2d2|g2f2g2 a4f2|g2f2g2 e2a2g2|f2d2d2 d4g2|b2g2b2 a2f2a2|g2f2g2 e4d2|B2e2e2 d2B2A2|B2G2G2 G4d2|
g2f2g2 a2f2d2|g2f2g2 a4f2|g2f2g2 e2a2g2|f2d2d2 d4g2|b2g2b2 a2f2a2|g2f2g2 e4d2|B2e2e2 d2B2A2|B2G2G2 G4||
